X:93
T:Satbal#86
D:Mitt Molloy: Stony Veriston wime 4
Z:id:hn-slipjeet Burber
D:Molly Corney: Tre


*****************************


18100 4 0.45353326 

<starhetonsdappe-37
M:C|
K:G
~D3 ~F3|~G3 BAG FGA|EcG EGA BGE|FGA def gAG|1 G2G Bed cBA:|2 edc dBA GEF||
<


*****************************


18200 4 0.8975541 

<start>
